**kern
*staff1
*I"vocal
=1-
*clefG2
*k[b-e-a-]
*M6/8
4.r
8g/
8a-/
8an/
=2
4cc\
8b-\
8a-/
8g/
8f/
=3
4e-/
8r
(fq/
8e-/)
8d/
8e-/
=4
!!linebreak:original
4g/
8f/
8e-/
8d/
8c/
=5
4B-/
8r
8dd\
8cc\
8b-\
=6
!!pagebreak:original
(8an/
8g/)
8f/
8e-/
8d/
8c/
=7
4.B-/
8Bn/
8An/
8B/
=8
4d/
8c/
(e-q/
8d/)
8c/
8d/
=9
!!linebreak:original
4e-/
8r
8en/
8d/
8e/
=10
!!pagebreak:original
4g/
8f/
(a-q/
8g/)
8f/
8g/
=11
4a-/
8r
8an/
8g/
8a/
=12
4cc\
8b-\
8an/
8a-/
8f/
=13
4.e-/
4.r
=14
!!linebreak:original
2.r
=15
4.r
8g/
8a-/
8an/
=16
4cc^\
8b-\
8a-/
8g/
8f/
=17
4e-/
8r
8e-/
8d/
8e-/
=18
!!pagebreak:original
8g/
8f/
8f-/
8e-/
8d/
8c/
=19
4B-/
8r
8dd\
8cc\
8b-\
=20
8an/
8g/
8f/
8e-/
8c/
8f/
=21
!!linebreak:original
4B-/
8r
8Bn/
8An/
8B/
=22
!!pagebreak:original
(e-q/
8d/)
8c/
8c/
8d/
8c/
8d/
=23
4e-/
8r
8en/
8d/
8e/
=24
4g/
8f/
(a-q/
8g/)
8f/
8g/
=25
!!linebreak:original
4a-/
8r
8an/
8g/
8a/
=26
!!pagebreak:original
4cc\
8b-\
8an/
8a-/
8f/
=27
4e-/
8r
4.r
=28
2.r
=29
4.r
8g/
8a-/
8b-\
=30
!!linebreak:original
4cc\
8f/
8f/
8en/
8f/
=31
4b-\
8r
8b-\
8an/
8b-\
=32
8b-\
8f/
8d/
8e-/
8c/
8f/
=33
!!pagebreak:original
4B-/
8r
8dd\
8cc\
8b-\
=34
!!linebreak:original
8an/
8g/
8f/
8e-/
8d/
8c/
=35
4.Bn/
8c/
8B/
8c/
=36
4e-^/
8d/
8e-/
8d/
8e-/
=37
!!pagebreak:original
4en/
8r
8f/
8e/
8f/
=38
!!linebreak:original
4a-/
8g/
8a-/
8g/
8a-/
=39
4an/
8r
8a/
8g/
8a/
=40
(8.ee-\
16an/)
8a/
8a/
8g/
8a/
=41
!!pagebreak:original
4b-\
8r
8b-\
8an/
8b-\
=42
!!linebreak:original
(8bn\
8b-\)
8a-/
8g-/
8f/
8e-/
=43
4d/
8r
8b-\
8an/
8b-\
=44
4.dd-\
4cc\
8cc\
=45
!!pagebreak:original
[2.ee-\
=46
!!linebreak:original
4.ee-\_
8ee-\]
8dd\
8cc\
=47
([4.b-\
8b-\]
8a-/)
8f/
=48
4e-/
8r
4.r
=49
2.r
=50
!!pagebreak:original
2.r;
==
*-
